;FLAVOR:Marlin
;TIME:582
;Filament used: 0.261802m
;Layer height: 0.28
;MINX:100.2
;MINY:100.2
;MINZ:0.2
;MAXX:119.8
;MAXY:119.8
;MAXZ:20.08
;Generated with Cura_SteamEngine 4.13.1
M140 S85
M105
M190 S85
M104 S230
M105
M109 S230
M82 ;absolute extrusion mode
; Ender 3 Custom Start G-code
G92 E0 ; Reset Extruder
G28 ; Home all axes
G1 Z2.0 F3000 ; Move Z Axis up little to prevent scratching of Heat Bed
G1 X0.1 Y20 Z0.3 F5000.0 ; Move to start position
G1 X0.1 Y200.0 Z0.3 F1500.0 E15 ; Draw the first line
G1 X0.4 Y200.0 Z0.3 F5000.0 ; Move to side a little
G1 X0.4 Y20 Z0.3 F1500.0 E30 ; Draw the second line
G92 E0 ; Reset Extruder
G1 Z2.0 F3000 ; Move Z Axis up little to prevent scratching of Heat Bed
G1 X5 Y20 Z0.3 F5000.0 ; Move over to prevent blob squish
G92 E0
G92 E0
G1 F1500 E-6
;LAYER_COUNT:72
;LAYER:0
M107
;MESH:20mm_cube.stl
G0 F6000 X119.8 Y119.8 Z0.2
;TYPE:WALL-OUTER
G1 F1500 E0
G1 F600 X100.2 Y119.8 E0.6519
G1 X100.2 Y100.2 E1.3038
G1 X119.8 Y100.2 E1.9557
G1 X119.8 Y119.8 E2.60759
G0 F6000 X119.4 Y119.518
;MESH:NONMESH
G0 F300 X119.4 Y119.518 Z0.48
G0 F6000 X119.8 Y119.8
;TIME_ELAPSED:12.544636
;LAYER:1
M106 S85
;TYPE:WALL-OUTER
;MESH:20mm_cube.stl
G1 F600 X100.2 Y119.8 E3.52025
G1 X100.2 Y100.2 E4.43291
G1 X119.8 Y100.2 E5.34557
G1 X119.8 Y119.8 E6.25823
G0 F8250 X119.4 Y119.518
;MESH:NONMESH
G0 F300 X119.4 Y119.518 Z0.76
G0 F8250 X119.8 Y119.8
;TIME_ELAPSED:20.572153
;LAYER:2
M106 S170
;TYPE:WALL-OUTER
;MESH:20mm_cube.stl
G1 F600 X100.2 Y119.8 E7.17089
G1 X100.2 Y100.2 E8.08354
G1 X119.8 Y100.2 E8.9962
G1 X119.8 Y119.8 E9.90886
G0 F10500 X119.4 Y119.518
;MESH:NONMESH
G0 F300 X119.4 Y119.518 Z1.04
G0 F10500 X119.8 Y119.8
;TIME_ELAPSED:28.600467
;LAYER:3
M106 S255
;TYPE:WALL-OUTER
;MESH:20mm_cube.stl
G1 F600 X100.2 Y119.8 E10.82152
G1 X100.2 Y100.2 E11.73418
G1 X119.8 Y100.2 E12.64683
G1 X119.8 Y119.8 E13.55949
G0 F10500 X119.4 Y119.518
;MESH:NONMESH
G0 F300 X119.4 Y119.518 Z1.32
G0 F10500 X119.8 Y119.8
;TIME_ELAPSED:36.628782
;LAYER:4
;TYPE:WALL-OUTER
;MESH:20mm_cube.stl
G1 F600 X100.2 Y119.8 E14.47215
G1 X100.2 Y100.2 E15.38481
G1 X119.8 Y100.2 E16.29747
G1 X119.8 Y119.8 E17.21012
G0 F10500 X119.4 Y119.518
;MESH:NONMESH
G0 F300 X119.4 Y119.518 Z1.6
G0 F10500 X119.8 Y119.8
;TIME_ELAPSED:44.657096
;LAYER:5
;TYPE:WALL-OUTER
;MESH:20mm_cube.stl
G1 F600 X100.2 Y119.8 E18.12278
G1 X100.2 Y100.2 E19.03544
G1 X119.8 Y100.2 E19.9481
G1 X119.8 Y119.8 E20.86076
G0 F10500 X119.4 Y119.518
;MESH:NONMESH
G0 F300 X119.4 Y119.518 Z1.88
G0 F10500 X119.8 Y119.8
;TIME_ELAPSED:52.685410
;LAYER:6
;TYPE:WALL-OUTER
;MESH:20mm_cube.stl
G1 F600 X100.2 Y119.8 E21.77341
G1 X100.2 Y100.2 E22.68607
G1 X119.8 Y100.2 E23.59873
G1 X119.8 Y119.8 E24.51139
G0 F10500 X119.4 Y119.518
;MESH:NONMESH
G0 F300 X119.4 Y119.518 Z2.16
G0 F10500 X119.8 Y119.8
;TIME_ELAPSED:60.713725
;LAYER:7
;TYPE:WALL-OUTER
;MESH:20mm_cube.stl
G1 F600 X100.2 Y119.8 E25.42405
G1 X100.2 Y100.2 E26.33671
G1 X119.8 Y100.2 E27.24936
G1 X119.8 Y119.8 E28.16202
G0 F10500 X119.4 Y119.518
;MESH:NONMESH
G0 F300 X119.4 Y119.518 Z2.44
G0 F10500 X119.8 Y119.8
;TIME_ELAPSED:68.742039
;LAYER:8
;TYPE:WALL-OUTER
;MESH:20mm_cube.stl
G1 F600 X100.2 Y119.8 E29.07468
G1 X100.2 Y100.2 E29.98734
G1 X119.8 Y100.2 E30.9
G1 X119.8 Y119.8 E31.81265
G0 F10500 X119.4 Y119.518
;MESH:NONMESH
G0 F300 X119.4 Y119.518 Z2.72
G0 F10500 X119.8 Y119.8
;TIME_ELAPSED:76.770354
;LAYER:9
;TYPE:WALL-OUTER
;MESH:20mm_cube.stl
G1 F600 X100.2 Y119.8 E32.72531
G1 X100.2 Y100.2 E33.63797
G1 X119.8 Y100.2 E34.55063
G1 X119.8 Y119.8 E35.46329
G0 F10500 X119.4 Y119.518
;MESH:NONMESH
G0 F300 X119.4 Y119.518 Z3
G0 F10500 X119.8 Y119.8
;TIME_ELAPSED:84.798668
;LAYER:10
;TYPE:WALL-OUTER
;MESH:20mm_cube.stl
G1 F600 X100.2 Y119.8 E36.37594
G1 X100.2 Y100.2 E37.2886
G1 X119.8 Y100.2 E38.20126
G1 X119.8 Y119.8 E39.11392
G0 F10500 X119.4 Y119.518
;MESH:NONMESH
G0 F300 X119.4 Y119.518 Z3.28
G0 F10500 X119.8 Y119.8
;TIME_ELAPSED:92.826982
;LAYER:11
;TYPE:WALL-OUTER
;MESH:20mm_cube.stl
G1 F600 X100.2 Y119.8 E40.02658
G1 X100.2 Y100.2 E40.93924
G1 X119.8 Y100.2 E41.85189
G1 X119.8 Y119.8 E42.76455
G0 F10500 X119.4 Y119.518
;MESH:NONMESH
G0 F300 X119.4 Y119.518 Z3.56
G0 F10500 X119.8 Y119.8
;TIME_ELAPSED:100.855297
;LAYER:12
;TYPE:WALL-OUTER
;MESH:20mm_cube.stl
G1 F600 X100.2 Y119.8 E43.67721
G1 X100.2 Y100.2 E44.58987
G1 X119.8 Y100.2 E45.50253
G1 X119.8 Y119.8 E46.41518
G0 F10500 X119.4 Y119.518
;MESH:NONMESH
G0 F300 X119.4 Y119.518 Z3.84
G0 F10500 X119.8 Y119.8
;TIME_ELAPSED:108.883611
;LAYER:13
;TYPE:WALL-OUTER
;MESH:20mm_cube.stl
G1 F600 X100.2 Y119.8 E47.32784
G1 X100.2 Y100.2 E48.2405
G1 X119.8 Y100.2 E49.15316
G1 X119.8 Y119.8 E50.06582
G0 F10500 X119.4 Y119.518
;MESH:NONMESH
G0 F300 X119.4 Y119.518 Z4.12
G0 F10500 X119.8 Y119.8
;TIME_ELAPSED:116.911925
;LAYER:14
;TYPE:WALL-OUTER
;MESH:20mm_cube.stl
G1 F600 X100.2 Y119.8 E50.97847
G1 X100.2 Y100.2 E51.89113
G1 X119.8 Y100.2 E52.80379
G1 X119.8 Y119.8 E53.71645
G0 F10500 X119.4 Y119.518
;MESH:NONMESH
G0 F300 X119.4 Y119.518 Z4.4
G0 F10500 X119.8 Y119.8
;TIME_ELAPSED:124.940240
;LAYER:15
;TYPE:WALL-OUTER
;MESH:20mm_cube.stl
G1 F600 X100.2 Y119.8 E54.62911
G1 X100.2 Y100.2 E55.54176
G1 X119.8 Y100.2 E56.45442
G1 X119.8 Y119.8 E57.36708
G0 F10500 X119.4 Y119.518
;MESH:NONMESH
G0 F300 X119.4 Y119.518 Z4.68
G0 F10500 X119.8 Y119.8
;TIME_ELAPSED:132.968554
;LAYER:16
;TYPE:WALL-OUTER
;MESH:20mm_cube.stl
G1 F600 X100.2 Y119.8 E58.27974
G1 X100.2 Y100.2 E59.1924
G1 X119.8 Y100.2 E60.10506
G1 X119.8 Y119.8 E61.01771
G0 F10500 X119.4 Y119.518
;MESH:NONMESH
G0 F300 X119.4 Y119.518 Z4.96
G0 F10500 X119.8 Y119.8
;TIME_ELAPSED:140.996869
;LAYER:17
;TYPE:WALL-OUTER
;MESH:20mm_cube.stl
G1 F600 X100.2 Y119.8 E61.93037
G1 X100.2 Y100.2 E62.84303
G1 X119.8 Y100.2 E63.75569
G1 X119.8 Y119.8 E64.66835
G0 F10500 X119.4 Y119.518
;MESH:NONMESH
G0 F300 X119.4 Y119.518 Z5.24
G0 F10500 X119.8 Y119.8
;TIME_ELAPSED:149.025183
;LAYER:18
;TYPE:WALL-OUTER
;MESH:20mm_cube.stl
G1 F600 X100.2 Y119.8 E65.581
G1 X100.2 Y100.2 E66.49366
G1 X119.8 Y100.2 E67.40632
G1 X119.8 Y119.8 E68.31898
G0 F10500 X119.4 Y119.518
;MESH:NONMESH
G0 F300 X119.4 Y119.518 Z5.52
G0 F10500 X119.8 Y119.8
;TIME_ELAPSED:157.053497
;LAYER:19
;TYPE:WALL-OUTER
;MESH:20mm_cube.stl
G1 F600 X100.2 Y119.8 E69.23164
G1 X100.2 Y100.2 E70.14429
G1 X119.8 Y100.2 E71.05695
G1 X119.8 Y119.8 E71.96961
G0 F10500 X119.4 Y119.518
;MESH:NONMESH
G0 F300 X119.4 Y119.518 Z5.8
G0 F10500 X119.8 Y119.8
;TIME_ELAPSED:165.081812
;LAYER:20
;TYPE:WALL-OUTER
;MESH:20mm_cube.stl
G1 F600 X100.2 Y119.8 E72.88227
G1 X100.2 Y100.2 E73.79493
G1 X119.8 Y100.2 E74.70758
G1 X119.8 Y119.8 E75.62024
G0 F10500 X119.4 Y119.518
;MESH:NONMESH
G0 F300 X119.4 Y119.518 Z6.08
G0 F10500 X119.8 Y119.8
;TIME_ELAPSED:173.110126
;LAYER:21
;TYPE:WALL-OUTER
;MESH:20mm_cube.stl
G1 F600 X100.2 Y119.8 E76.5329
G1 X100.2 Y100.2 E77.44556
G1 X119.8 Y100.2 E78.35822
G1 X119.8 Y119.8 E79.27088
G0 F10500 X119.4 Y119.518
;MESH:NONMESH
G0 F300 X119.4 Y119.518 Z6.36
G0 F10500 X119.8 Y119.8
;TIME_ELAPSED:181.138440
;LAYER:22
;TYPE:WALL-OUTER
;MESH:20mm_cube.stl
G1 F600 X100.2 Y119.8 E80.18353
G1 X100.2 Y100.2 E81.09619
G1 X119.8 Y100.2 E82.00885
G1 X119.8 Y119.8 E82.92151
G0 F10500 X119.4 Y119.518
;MESH:NONMESH
G0 F300 X119.4 Y119.518 Z6.64
G0 F10500 X119.8 Y119.8
;TIME_ELAPSED:189.166755
;LAYER:23
;TYPE:WALL-OUTER
;MESH:20mm_cube.stl
G1 F600 X100.2 Y119.8 E83.83417
G1 X100.2 Y100.2 E84.74682
G1 X119.8 Y100.2 E85.65948
G1 X119.8 Y119.8 E86.57214
G0 F10500 X119.4 Y119.518
;MESH:NONMESH
G0 F300 X119.4 Y119.518 Z6.92
G0 F10500 X119.8 Y119.8
;TIME_ELAPSED:197.195069
;LAYER:24
;TYPE:WALL-OUTER
;MESH:20mm_cube.stl
G1 F600 X100.2 Y119.8 E87.4848
G1 X100.2 Y100.2 E88.39746
G1 X119.8 Y100.2 E89.31011
G1 X119.8 Y119.8 E90.22277
G0 F10500 X119.4 Y119.518
;MESH:NONMESH
G0 F300 X119.4 Y119.518 Z7.2
G0 F10500 X119.8 Y119.8
;TIME_ELAPSED:205.223384
;LAYER:25
;TYPE:WALL-OUTER
;MESH:20mm_cube.stl
G1 F600 X100.2 Y119.8 E91.13543
G1 X100.2 Y100.2 E92.04809
G1 X119.8 Y100.2 E92.96075
G1 X119.8 Y119.8 E93.87341
G0 F10500 X119.4 Y119.518
;MESH:NONMESH
G0 F300 X119.4 Y119.518 Z7.48
G0 F10500 X119.8 Y119.8
;TIME_ELAPSED:213.251698
;LAYER:26
;TYPE:WALL-OUTER
;MESH:20mm_cube.stl
G1 F600 X100.2 Y119.8 E94.78606
G1 X100.2 Y100.2 E95.69872
G1 X119.8 Y100.2 E96.61138
G1 X119.8 Y119.8 E97.52404
G0 F10500 X119.4 Y119.518
;MESH:NONMESH
G0 F300 X119.4 Y119.518 Z7.76
G0 F10500 X119.8 Y119.8
;TIME_ELAPSED:221.280012
;LAYER:27
;TYPE:WALL-OUTER
;MESH:20mm_cube.stl
G1 F600 X100.2 Y119.8 E98.4367
G1 X100.2 Y100.2 E99.34935
G1 X119.8 Y100.2 E100.26201
G1 X119.8 Y119.8 E101.17467
G0 F10500 X119.4 Y119.518
;MESH:NONMESH
G0 F300 X119.4 Y119.518 Z8.04
G0 F10500 X119.8 Y119.8
;TIME_ELAPSED:229.308327
;LAYER:28
;TYPE:WALL-OUTER
;MESH:20mm_cube.stl
G1 F600 X100.2 Y119.8 E102.08733
G1 X100.2 Y100.2 E102.99999
G1 X119.8 Y100.2 E103.91264
G1 X119.8 Y119.8 E104.8253
G0 F10500 X119.4 Y119.518
;MESH:NONMESH
G0 F300 X119.4 Y119.518 Z8.32
G0 F10500 X119.8 Y119.8
;TIME_ELAPSED:237.336641
;LAYER:29
;TYPE:WALL-OUTER
;MESH:20mm_cube.stl
G1 F600 X100.2 Y119.8 E105.73796
G1 X100.2 Y100.2 E106.65062
G1 X119.8 Y100.2 E107.56328
G1 X119.8 Y119.8 E108.47593
G0 F10500 X119.4 Y119.518
;MESH:NONMESH
G0 F300 X119.4 Y119.518 Z8.6
G0 F10500 X119.8 Y119.8
;TIME_ELAPSED:245.364955
;LAYER:30
;TYPE:WALL-OUTER
;MESH:20mm_cube.stl
G1 F600 X100.2 Y119.8 E109.38859
G1 X100.2 Y100.2 E110.30125
G1 X119.8 Y100.2 E111.21391
G1 X119.8 Y119.8 E112.12657
G0 F10500 X119.4 Y119.518
;MESH:NONMESH
G0 F300 X119.4 Y119.518 Z8.88
G0 F10500 X119.8 Y119.8
;TIME_ELAPSED:253.393270
;LAYER:31
;TYPE:WALL-OUTER
;MESH:20mm_cube.stl
G1 F600 X100.2 Y119.8 E113.03923
G1 X100.2 Y100.2 E113.95188
G1 X119.8 Y100.2 E114.86454
G1 X119.8 Y119.8 E115.7772
G0 F10500 X119.4 Y119.518
;MESH:NONMESH
G0 F300 X119.4 Y119.518 Z9.16
G0 F10500 X119.8 Y119.8
;TIME_ELAPSED:261.421584
;LAYER:32
;TYPE:WALL-OUTER
;MESH:20mm_cube.stl
G1 F600 X100.2 Y119.8 E116.68986
G1 X100.2 Y100.2 E117.60252
G1 X119.8 Y100.2 E118.51517
G1 X119.8 Y119.8 E119.42783
G0 F10500 X119.4 Y119.518
;MESH:NONMESH
G0 F300 X119.4 Y119.518 Z9.44
G0 F10500 X119.8 Y119.8
;TIME_ELAPSED:269.449898
;LAYER:33
;TYPE:WALL-OUTER
;MESH:20mm_cube.stl
G1 F600 X100.2 Y119.8 E120.34049
G1 X100.2 Y100.2 E121.25315
G1 X119.8 Y100.2 E122.16581
G1 X119.8 Y119.8 E123.07846
G0 F10500 X119.4 Y119.518
;MESH:NONMESH
G0 F300 X119.4 Y119.518 Z9.72
G0 F10500 X119.8 Y119.8
;TIME_ELAPSED:277.478213
;LAYER:34
;TYPE:WALL-OUTER
;MESH:20mm_cube.stl
G1 F600 X100.2 Y119.8 E123.99112
G1 X100.2 Y100.2 E124.90378
G1 X119.8 Y100.2 E125.81644
G1 X119.8 Y119.8 E126.7291
G0 F10500 X119.4 Y119.518
;MESH:NONMESH
G0 F300 X119.4 Y119.518 Z10
G0 F10500 X119.8 Y119.8
;TIME_ELAPSED:285.506527
;LAYER:35
;TYPE:WALL-OUTER
;MESH:20mm_cube.stl
G1 F600 X100.2 Y119.8 E127.64176
G1 X100.2 Y100.2 E128.55441
G1 X119.8 Y100.2 E129.46707
G1 X119.8 Y119.8 E130.37973
G0 F10500 X119.4 Y119.518
;MESH:NONMESH
G0 F300 X119.4 Y119.518 Z10.28
G0 F10500 X119.8 Y119.8
;TIME_ELAPSED:293.534842
;LAYER:36
;TYPE:WALL-OUTER
;MESH:20mm_cube.stl
G1 F600 X100.2 Y119.8 E131.29239
G1 X100.2 Y100.2 E132.20505
G1 X119.8 Y100.2 E133.1177
G1 X119.8 Y119.8 E134.03036
G0 F10500 X119.4 Y119.518
;MESH:NONMESH
G0 F300 X119.4 Y119.518 Z10.56
G0 F10500 X119.8 Y119.8
;TIME_ELAPSED:301.563156
;LAYER:37
;TYPE:WALL-OUTER
;MESH:20mm_cube.stl
G1 F600 X100.2 Y119.8 E134.94302
G1 X100.2 Y100.2 E135.85568
G1 X119.8 Y100.2 E136.76834
G1 X119.8 Y119.8 E137.68099
G0 F10500 X119.4 Y119.518
;MESH:NONMESH
G0 F300 X119.4 Y119.518 Z10.84
G0 F10500 X119.8 Y119.8
;TIME_ELAPSED:309.591470
;LAYER:38
;TYPE:WALL-OUTER
;MESH:20mm_cube.stl
G1 F600 X100.2 Y119.8 E138.59365
G1 X100.2 Y100.2 E139.50631
G1 X119.8 Y100.2 E140.41897
G1 X119.8 Y119.8 E141.33163
G0 F10500 X119.4 Y119.518
;MESH:NONMESH
G0 F300 X119.4 Y119.518 Z11.12
G0 F10500 X119.8 Y119.8
;TIME_ELAPSED:317.619785
;LAYER:39
;TYPE:WALL-OUTER
;MESH:20mm_cube.stl
G1 F600 X100.2 Y119.8 E142.24428
G1 X100.2 Y100.2 E143.15694
G1 X119.8 Y100.2 E144.0696
G1 X119.8 Y119.8 E144.98226
G0 F10500 X119.4 Y119.518
;MESH:NONMESH
G0 F300 X119.4 Y119.518 Z11.4
G0 F10500 X119.8 Y119.8
;TIME_ELAPSED:325.648099
;LAYER:40
;TYPE:WALL-OUTER
;MESH:20mm_cube.stl
G1 F600 X100.2 Y119.8 E145.89492
G1 X100.2 Y100.2 E146.80758
G1 X119.8 Y100.2 E147.72023
G1 X119.8 Y119.8 E148.63289
G0 F10500 X119.4 Y119.518
;MESH:NONMESH
G0 F300 X119.4 Y119.518 Z11.68
G0 F10500 X119.8 Y119.8
;TIME_ELAPSED:333.676413
;LAYER:41
;TYPE:WALL-OUTER
;MESH:20mm_cube.stl
G1 F600 X100.2 Y119.8 E149.54555
G1 X100.2 Y100.2 E150.45821
G1 X119.8 Y100.2 E151.37087
G1 X119.8 Y119.8 E152.28352
G0 F10500 X119.4 Y119.518
;MESH:NONMESH
G0 F300 X119.4 Y119.518 Z11.96
G0 F10500 X119.8 Y119.8
;TIME_ELAPSED:341.704728
;LAYER:42
;TYPE:WALL-OUTER
;MESH:20mm_cube.stl
G1 F600 X100.2 Y119.8 E153.19618
G1 X100.2 Y100.2 E154.10884
G1 X119.8 Y100.2 E155.0215
G1 X119.8 Y119.8 E155.93416
G0 F10500 X119.4 Y119.518
;MESH:NONMESH
G0 F300 X119.4 Y119.518 Z12.24
G0 F10500 X119.8 Y119.8
;TIME_ELAPSED:349.733042
;LAYER:43
;TYPE:WALL-OUTER
;MESH:20mm_cube.stl
G1 F600 X100.2 Y119.8 E156.84681
G1 X100.2 Y100.2 E157.75947
G1 X119.8 Y100.2 E158.67213
G1 X119.8 Y119.8 E159.58479
G0 F10500 X119.4 Y119.518
;MESH:NONMESH
G0 F300 X119.4 Y119.518 Z12.52
G0 F10500 X119.8 Y119.8
;TIME_ELAPSED:357.761357
;LAYER:44
;TYPE:WALL-OUTER
;MESH:20mm_cube.stl
G1 F600 X100.2 Y119.8 E160.49745
G1 X100.2 Y100.2 E161.4101
G1 X119.8 Y100.2 E162.32276
G1 X119.8 Y119.8 E163.23542
G0 F10500 X119.4 Y119.518
;MESH:NONMESH
G0 F300 X119.4 Y119.518 Z12.8
G0 F10500 X119.8 Y119.8
;TIME_ELAPSED:365.789671
;LAYER:45
;TYPE:WALL-OUTER
;MESH:20mm_cube.stl
G1 F600 X100.2 Y119.8 E164.14808
G1 X100.2 Y100.2 E165.06074
G1 X119.8 Y100.2 E165.9734
G1 X119.8 Y119.8 E166.88605
G0 F10500 X119.4 Y119.518
;MESH:NONMESH
G0 F300 X119.4 Y119.518 Z13.08
G0 F10500 X119.8 Y119.8
;TIME_ELAPSED:373.817985
;LAYER:46
;TYPE:WALL-OUTER
;MESH:20mm_cube.stl
G1 F600 X100.2 Y119.8 E167.79871
G1 X100.2 Y100.2 E168.71137
G1 X119.8 Y100.2 E169.62403
G1 X119.8 Y119.8 E170.53669
G0 F10500 X119.4 Y119.518
;MESH:NONMESH
G0 F300 X119.4 Y119.518 Z13.36
G0 F10500 X119.8 Y119.8
;TIME_ELAPSED:381.846300
;LAYER:47
;TYPE:WALL-OUTER
;MESH:20mm_cube.stl
G1 F600 X100.2 Y119.8 E171.44934
G1 X100.2 Y100.2 E172.362
G1 X119.8 Y100.2 E173.27466
G1 X119.8 Y119.8 E174.18732
G0 F10500 X119.4 Y119.518
;MESH:NONMESH
G0 F300 X119.4 Y119.518 Z13.64
G0 F10500 X119.8 Y119.8
;TIME_ELAPSED:389.874614
;LAYER:48
;TYPE:WALL-OUTER
;MESH:20mm_cube.stl
G1 F600 X100.2 Y119.8 E175.09998
G1 X100.2 Y100.2 E176.01263
G1 X119.8 Y100.2 E176.92529
G1 X119.8 Y119.8 E177.83795
G0 F10500 X119.4 Y119.518
;MESH:NONMESH
G0 F300 X119.4 Y119.518 Z13.92
G0 F10500 X119.8 Y119.8
;TIME_ELAPSED:397.902928
;LAYER:49
;TYPE:WALL-OUTER
;MESH:20mm_cube.stl
G1 F600 X100.2 Y119.8 E178.75061
G1 X100.2 Y100.2 E179.66327
G1 X119.8 Y100.2 E180.57593
G1 X119.8 Y119.8 E181.48858
G0 F10500 X119.4 Y119.518
;MESH:NONMESH
G0 F300 X119.4 Y119.518 Z14.2
G0 F10500 X119.8 Y119.8
;TIME_ELAPSED:405.931243
;LAYER:50
;TYPE:WALL-OUTER
;MESH:20mm_cube.stl
G1 F600 X100.2 Y119.8 E182.40124
G1 X100.2 Y100.2 E183.3139
G1 X119.8 Y100.2 E184.22656
G1 X119.8 Y119.8 E185.13922
G0 F10500 X119.4 Y119.518
;MESH:NONMESH
G0 F300 X119.4 Y119.518 Z14.48
G0 F10500 X119.8 Y119.8
;TIME_ELAPSED:413.959557
;LAYER:51
;TYPE:WALL-OUTER
;MESH:20mm_cube.stl
G1 F600 X100.2 Y119.8 E186.05187
G1 X100.2 Y100.2 E186.96453
G1 X119.8 Y100.2 E187.87719
G1 X119.8 Y119.8 E188.78985
G0 F10500 X119.4 Y119.518
;MESH:NONMESH
G0 F300 X119.4 Y119.518 Z14.76
G0 F10500 X119.8 Y119.8
;TIME_ELAPSED:421.987872
;LAYER:52
;TYPE:WALL-OUTER
;MESH:20mm_cube.stl
G1 F600 X100.2 Y119.8 E189.70251
G1 X100.2 Y100.2 E190.61516
G1 X119.8 Y100.2 E191.52782
G1 X119.8 Y119.8 E192.44048
G0 F10500 X119.4 Y119.518
;MESH:NONMESH
G0 F300 X119.4 Y119.518 Z15.04
G0 F10500 X119.8 Y119.8
;TIME_ELAPSED:430.016186
;LAYER:53
;TYPE:WALL-OUTER
;MESH:20mm_cube.stl
G1 F600 X100.2 Y119.8 E193.35314
G1 X100.2 Y100.2 E194.2658
G1 X119.8 Y100.2 E195.17845
G1 X119.8 Y119.8 E196.09111
G0 F10500 X119.4 Y119.518
;MESH:NONMESH
G0 F300 X119.4 Y119.518 Z15.32
G0 F10500 X119.8 Y119.8
;TIME_ELAPSED:438.044500
